assets/icon.svg

<svg width="192" height="192" xmlns:xlink="http://www.w3.org/1999/xlink" xmlns="http://www.w3.org/2000/svg"><defs><linearGradient id="a"><stop style="stop-color:#00bdf9;stop-opacity:1" offset="0"/><stop style="stop-color:#4242ff;stop-opacity:1" offset="1"/></linearGradient><linearGradient xlink:href="#a" id="c" x1="0" y1="192" x2="192" y2="0" gradientUnits="userSpaceOnUse"/><linearGradient xlink:href="#a" id="d" gradientUnits="userSpaceOnUse" x1="0" y1="0" x2="192" y2="192"/><linearGradient xlink:href="#a" id="b" x1="184" y1="184" x2="152" y2="152" gradientUnits="userSpaceOnUse"/></defs><path style="fill:none;stroke:url(#b);stroke-width:24;stroke-linecap:round;stroke-linejoin:miter;stroke-miterlimit:4;stroke-dasharray:none;stroke-opacity:1" d="m172 172-20-20"/><path style="fill:url(#c);fill-opacity:1;stroke:none;stroke-width:24;stroke-linecap:round;stroke-linejoin:round;stroke-miterlimit:4;stroke-dasharray:none;stroke-opacity:1" d="M96 8A88 88 0 0 0 8 96a88 88 0 0 0 88 88 88 88 0 0 0 88-88A88 88 0 0 0 96 8Zm0 56a32 32 0 0 1 32 32 32 32 0 0 1-32 32 32 32 0 0 1-32-32 32 32 0 0 1 32-32Z"/><path style="fill:url(#d);fill-opacity:1;stroke:none;stroke-width:24;stroke-linecap:round;stroke-linejoin:round;stroke-miterlimit:4;stroke-dasharray:none;stroke-opacity:1" d="M96 32a64 64 0 0 0-64 64 64 64 0 0 0 64 64 64 64 0 0 0 64-64 64 64 0 0 0-64-64Zm0 32a32 32 0 0 1 32 32 32 32 0 0 1-32 32 32 32 0 0 1-32-32 32 32 0 0 1 32-32Z"/></svg>

<?xml version="1.0" encoding="UTF-8" standalone="no"?>
<!-- Created with Inkscape (http://www.inkscape.org/) -->

<svg
   width="192"
   height="192"
   id="svg5"
   sodipodi:docname="icon.svg"
   version="1.1"
   inkscape:version="1.1.2 (0a00cf5339, 2022-02-04)"
   xmlns:inkscape="http://www.inkscape.org/namespaces/inkscape"
   xmlns:sodipodi="http://sodipodi.sourceforge.net/DTD/sodipodi-0.dtd"
   xmlns:xlink="http://www.w3.org/1999/xlink"
   xmlns="http://www.w3.org/2000/svg"
   xmlns:svg="http://www.w3.org/2000/svg">
  <sodipodi:namedview
     id="namedview7"
     pagecolor="#ffffff"
     bordercolor="#111111"
     borderopacity="1"
     inkscape:pageshadow="0"
     inkscape:pageopacity="0"
     inkscape:pagecheckerboard="true"
     inkscape:document-units="px"
     showgrid="true"
     units="px"
     width="512px"
     inkscape:zoom="0.11980252"
     inkscape:cx="-1819.6613"
     inkscape:cy="-626.03026"
     inkscape:window-width="1920"
     inkscape:window-height="1031"
     inkscape:window-x="0"
     inkscape:window-y="0"
     inkscape:window-maximized="1"
     inkscape:current-layer="layer1"
     inkscape:showpageshadow="false"
     showborder="true">
    <inkscape:grid
       type="xygrid"
       id="grid907"
       spacingx="4"
       spacingy="4"
       empspacing="4" />
  </sodipodi:namedview>
  <defs
     id="defs2">
    <linearGradient
       inkscape:collect="always"
       id="linearGradient2074">
      <stop
         style="stop-color:#00bdf9;stop-opacity:1"
         offset="0"
         id="stop2070" />
      <stop
         style="stop-color:#4242ff;stop-opacity:1"
         offset="1"
         id="stop2072" />
    </linearGradient>
    <inkscape:path-effect
       effect="bspline"
       id="path-effect1133"
       is_visible="true"
       lpeversion="1"
       weight="33.333333"
       steps="2"
       helper_size="0"
       apply_no_weight="true"
       apply_with_weight="true"
       only_selected="false" />
    <inkscape:path-effect
       effect="bspline"
       id="path-effect857"
       is_visible="true"
       lpeversion="1"
       weight="33.333333"
       steps="2"
       helper_size="0"
       apply_no_weight="true"
       apply_with_weight="true"
       only_selected="false" />
    <linearGradient
       inkscape:collect="always"
       xlink:href="#linearGradient2074"
       id="linearGradient1988"
       x1="0"
       y1="192"
       x2="192"
       y2="0"
       gradientUnits="userSpaceOnUse" />
    <linearGradient
       inkscape:collect="always"
       xlink:href="#linearGradient2074"
       id="linearGradient2591"
       gradientUnits="userSpaceOnUse"
       x1="0"
       y1="0"
       x2="192"
       y2="192" />
    <linearGradient
       inkscape:collect="always"
       xlink:href="#linearGradient2074"
       id="linearGradient857"
       x1="184"
       y1="184"
       x2="152"
       y2="152"
       gradientUnits="userSpaceOnUse" />
  </defs>
  <g
     inkscape:label="图层 1"
     inkscape:groupmode="layer"
     id="layer1">
    <path
       style="fill:none;stroke:url(#linearGradient857);stroke-width:24;stroke-linecap:round;stroke-linejoin:miter;stroke-miterlimit:4;stroke-dasharray:none;stroke-opacity:1"
       d="M 172,172 152,152"
       id="path979"
       sodipodi:nodetypes="cc" />
    <path
       id="path1950"
       style="fill:url(#linearGradient1988);fill-opacity:1;stroke:none;stroke-width:24;stroke-linecap:round;stroke-linejoin:round;stroke-miterlimit:4;stroke-dasharray:none;stroke-opacity:1"
       d="M 96,8 A 88,88 0 0 0 8,96 88,88 0 0 0 96,184 88,88 0 0 0 184,96 88,88 0 0 0 96,8 Z m 0,56 A 32,32 0 0 1 128,96 32,32 0 0 1 96,128 32,32 0 0 1 64,96 32,32 0 0 1 96,64 Z" />
    <path
       id="path2191"
       style="fill:url(#linearGradient2591);fill-opacity:1;stroke:none;stroke-width:24;stroke-linecap:round;stroke-linejoin:round;stroke-miterlimit:4;stroke-dasharray:none;stroke-opacity:1"
       d="M 96,32 A 64,64 0 0 0 32,96 64,64 0 0 0 96,160 64,64 0 0 0 160,96 64,64 0 0 0 96,32 Z m 0,32 A 32,32 0 0 1 128,96 32,32 0 0 1 96,128 32,32 0 0 1 64,96 32,32 0 0 1 96,64 Z" />
  </g>
</svg>
